X:114 
T:Lovely Lassie Winking (reel)
S:Grier MS
F:file ID: cre.4/114lovely_L
B:CRE4.167 (Smeideadh na Meidhre Maisi)
Q:180
L:1/8
M:4/4
R:reel
K:D
FAAc BAdA|BAdA Bdd2|FAAc BAdB|AFDF E2D2:|
efed BcdB|AFAB d2 cd|efed BcdB|AFDF E2 D2|
efed BcdB|AFAB d2 ef|gfed BcdB|AFDF E2 D2||\
"final"D8|]

%%%

